!!!COM: Palestrina, Giovanni Perluigi da
!!!OPR: Missa Salvum me fac
!!!OMD: Credo
!!!OTL: Et in Spiritum
**kern	**kern	**kern	**kern	**kern
*Ibass	*Itenor	*Icalto	*Icant	*Icant
!Bassus	!Tenor	!Altus	!Cantus 2	!Cantus 1
*clefF4	*clefGv2	*clefG2	*clefG2	*clefG2
*k[b-]	*k[b-]	*k[b-]	*k[b-]	*k[b-]
*G:dor	*G:dor	*G:dor	*G:dor	*G:dor
*M4/2	*M4/2	*M4/2	*M4/2	*M4/2
=170	=170	=170	=170	=170
1.A	1.e	1.a	1.cc#	0r
2A	2e	2a	2cc#	.
=171	=171	=171	=171	=171
2D	2f	2a	2dd	0r
2D	2f	2a	2dd	.
1A	1e	1a	1cc#	.
=172	=172	=172	=172	=172
1G	1g	1b-	1dd	0r
1D	2f	1a	2dd	.
.	[2d	.	[2ff	.
=173	=173	=173	=173	=173
2.d	4d]	1f	4ff]	0r
.	4c	.	4ee-	.
.	4B-	.	1dd	.
4c	4A	.	.	.
2B-	2G	1g	.	.
2c	[2g	.	4cc	.
.	.	.	4b-	.
=174	=174	=174	=174	=174
2A	2g]	1a	2cc	1r
2A	2f#	.	2cc	.
2.G	1g	2d	2b-	[1dd
.	.	[2b-	[2g	.
8F	.	.	.	.
8E-	.	.	.	.
=175	=175	=175	=175	=175
1D	0r	2b-]	2g]	2dd]
.	.	2a	2f	2dd
1r	.	2g	2b-	2dd
.	.	2f	2a	2dd
=176	=176	=176	=176	=176
1r	2r	2e-	2b-	1ee-
.	1g	2c	2cc	.
2r	.	2d	1a	[1dd
[2D	2f	2a	.	.
=177	=177	=177	=177	=177
2D]	2d	2b-	2r	0dd]
2D	2.f	2a	2a	.
2D	.	1f	2a	.
.	4e	.	.	.
2D	[2d	.	[2b-	.
=178	=178	=178	=178	=178
1E-	2d]	1.g	2b-]	0r
.	2c	.	2g	.
1D	[1d	.	2b-	.
.	.	2f#	4a	.
.	.	.	4g	.
=179	=179	=179	=179	=179
2r	1d]	2r	1a	2r
1d	.	1f	.	1a
.	1r	.	1dd	.
2d	.	2f	.	2a
=180	=180	=180	=180	=180
2c#	1r	2e	0r	2a
2d	.	2f	.	2a
2G	2r	2g	.	2b-
2G	[2d	2g	.	2b-
=181	=181	=181	=181	=181
1D	2d]	2.f	0r	1a
.	2d	.	.	.
.	.	4g	.	.
1D	2d	4a	.	1f
.	.	4b-	.	.
.	2d	[2a	.	.
=182	=182	=182	=182	=182
0r	2e-	4a]	1r	1g
.	.	4g	.	.
.	2e-	1g	.	.
.	[1d	.	2r	1a
.	.	4f	[2dd	.
.	.	4e	.	.
=183	=183	=183	=183	=183
0r	1d]	2f	2dd]	2d
.	.	1f	2dd	2a
.	1B-	.	2dd	2b-
.	.	[2g	2dd	2b-
=184	=184	=184	=184	=184
0r	1c	2g]	2ee-	2g
.	.	1a	2ee-	2cc
.	1d	.	1dd	4f
.	.	.	.	4g
.	.	[2d	.	4a
.	.	.	.	4f
=185	=185	=185	=185	=185
0r	1G	2d]	1b-	4g
.	.	.	.	4a
.	.	2g	.	1b-
.	1r	2e-	1cc	.
.	.	2f	.	2a
=186	=186	=186	=186	=186
2r	0r	2B-	1dd	2.b-
2G	.	2b-	.	.
.	.	.	.	4cc
2G	.	2b-	1g	[1dd
[2G	.	[2b-	.	.
=187	=187	=187	=187	=187
2G]	2r	2b-]	0r	1dd]
2F	2d	2a	.	.
1B-	2d	2g	.	1r
.	[2d	[2f	.	.
=188	=188	=188	=188	=188
2A	2d]	2f]	2r	0r
2A	2c	1e	2a	.
[1D	1f	.	2a	.
.	.	4d	[2a	.
.	.	4c#	.	.
=189	=189	=189	=189	=189
1D]	2d	4d	2a]	0r
.	.	4e	.	.
.	2d	4f	2f	.
.	.	4g	.	.
1r	4G	4a	1b-	.
.	4A	4f	.	.
.	4B-	2g	.	.
.	4c	.	.	.
=190	=190	=190	=190	=190
2r	2d	4f	2.a	1r
.	.	4e	.	.
1d	1f	4d	.	.
.	.	8c	4a	.
.	.	8B-	.	.
.	.	1A	1a	2r
2c#	2e	.	.	[2a
=191	=191	=191	=191	=191
2.d	2.f	0r	0r	2a]
.	.	.	.	2a
4c	4e	.	.	.
2B-	2d	.	.	2g
2A	2c	.	.	2f
=192	=192	=192	=192	=192
1G	1d	2r	2r	1b-
.	.	2d	2dd	.
[1D	2d	2.f	2dd	2a
.	2d	.	2dd	2a
.	.	4g	.	.
=193	=193	=193	=193	=193
1D]	2d	2a	1ff	2dd
.	2d	2b	.	2dd
1r	2c	2cc	2ee-	2g
.	2B-	2f	[2dd	[2b-
=194	=194	=194	=194	=194
0r	1e-	1g	4dd]	4b-]
.	.	.	8cc	4a
.	.	.	8b-	.
.	.	.	2cc	1g
.	1d	1a	1dd	.
.	.	.	.	2f#
=195	=195	=195	=195	=195
1G	1r	2.b-	2r	1g
.	.	.	2dd	.
.	.	4a	.	.
2G	2r	1g	2ee-	1r
[2B-	2d	.	[2dd	.
=196	=196	=196	=196	=196
2B-]	2d	1f	2dd]	1r
4A	1f	.	4cc	.
4G	.	.	4b-	.
2F	.	1r	2a	2r
2G	4e-	.	2b	2g
.	4d	.	.	.
=197	=197	=197	=197	=197
2C	2e-	1r	2cc	2g
1G	2d	.	2dd	1b-
.	2.d	2r	2g	.
2F#	.	[2d	2a	2a
.	4c	.	.	.
=198	=198	=198	=198	=198
1G	4B-	2d]	1b-	2g
.	4A	.	.	.
.	2G	2d	.	2dd
[1D	2r	2.f	1a	2dd
.	2d	.	.	[2ff
.	.	4g	.	.
=199	=199	=199	=199	=199
1D]	2d	1.a	2r	2ff]
.	1f	.	2a	4ee
.	.	.	.	4dd
1r	.	.	2a	2.cc
.	4e	4g	[2cc	.
.	4d	4f	.	4dd
=200	=200	=200	=200	=200
0r	2c	2g	4cc]	2ee
.	.	.	4b-	.
.	2d	2f	4a	1dd
.	.	.	4g	.
.	1A	1e	1a	.
.	.	.	.	2cc#
=201	=201	=201	=201	=201
2r	1r	1d	2a	0dd
1G	.	.	1b-	.
.	2r	1d	.	.
[2B-	[2d	.	[2dd	.
=202	=202	=202	=202	=202
2B-]	2d]	2B-	2dd]	0r
2A	1f	2c	2cc	.
1G	.	2d	2b-	.
.	2e	2e	2g	.
=203	=203	=203	=203	=203
2F	1d	0f	2a	0r
2D	.	.	2.b-	.
1F	2c	.	.	.
.	.	.	4a	.
.	2A	.	[2a	.
=204	=204	=204	=204	=204
2.G	2B-	2.d	2a]	2r
.	2B-	.	2g	1dd
4G	.	4d	.	.
[1D	2A	1d	1a	.
.	[2d	.	.	[2ff
=205	=205	=205	=205	=205
1D]	2d]	2r	1d	4ff]
.	.	.	.	4ee
.	1f	1a	.	1dd
1r	.	.	2f	.
.	2e	[2cc	2g	2cc
=206	=206	=206	=206	=206
0r	2d	2cc]	2a	2ff
.	2d	2b	2b	2dd
.	2c	2a	1cc	2ee
.	2A	2a	.	2ff
=207	=207	=207	=207	=207
0r	1c	2g	2.cc	1ee
.	.	2e	.	.
.	.	.	4b-	.
.	1d	2f#	2a	[1dd
.	.	[2g	2g	.
=208	=208	=208	=208	=208
1r	1d	2g]	2a	2dd]
.	.	2f#	2a	2dd
2r	1G	1g	2.b-	1dd
[2G	.	.	.	.
.	.	.	4cc	.
=209	=209	=209	=209	=209
2G]	2r	2r	1dd	2r
1B-	2G	2g	.	2dd
.	2B-	2f	1r	2dd
2A	2c	2f	.	2cc
=210	=210	=210	=210	=210
2G	2d	1B-	1r	2b-
2G	2e	.	.	2g
2F	2f	2c	2r	2a
2D	4F	[2f	2dd	2a
.	4G	.	.	.
=211	=211	=211	=211	=211
1F	4A	2f]	2cc	1a
.	4B-	.	.	.
.	1c	2f	2a	.
1G	.	1d	2b-	[1g
.	2B	.	2g	.
=212	=212	=212	=212	=212
0C	1c	1e	2r	1g]
.	.	.	4cc	.
.	.	.	4b	.
.	1c	[1g	4cc	2r
.	.	.	4dd	.
.	.	.	2ee-	2cc
=213	=213	=213	=213	=213
2r	1G	2g]	2dd	2b-
2G	.	2d	2b-	2g
2F	2r	[1f	2cc	[1a
2D	2d	.	4f	.
.	.	.	4g	.
=214	=214	=214	=214	=214
1F	2c	1f]	4a	1a]
.	.	.	4b-	.
.	2A	.	1cc	.
1G	2B-	1d	.	[1g
.	[2G	.	2b	.
=215	=215	=215	=215	=215
0C	4G]	1e	[0cc	0g]
.	8A	.	.	.
.	8B	.	.	.
.	2.c	.	.	.
.	.	2r	.	.
.	4B-	.	.	.
.	4A	[2g	.	.
.	4G	.	.	.
=216	=216	=216	=216	=216
2r	1A	2g]	1cc]	0r
1c	.	2f	.	.
.	1G	2e	1r	.
2B-	.	2d	.	.
=217	=217	=217	=217	=217
2A	2r	2f	0r	0r
2G	1g	2e	.	.
2.B-	.	2.d	.	.
.	2f	.	.	.
4A	.	4c	.	.
=218	=218	=218	=218	=218
2G	2e	2B-	0r	1r
2F	2d	2A	.	.
1E	2d	1G	.	2r
.	2c#	.	.	[2gg
=219	=219	=219	=219	=219
1D	1d	2A	1r	2gg]
.	.	2.a	.	2ff
1r	2c	.	2r	2ee
.	.	8g	.	.
.	.	8f	.	.
.	2B-	2g	[2dd	2dd
=220	=220	=220	=220	=220
0r	1A	1a	2dd]	2ff
.	.	.	2cc	2ee
.	2.d	[1f	2b-	[1dd
.	.	.	2a	.
.	4c	.	.	.
=221	=221	=221	=221	=221
0r	2B-	0f]	2.ff	2dd]
.	2A	.	.	2cc
.	.	.	4ee	.
.	2B-	.	2dd	2b-
.	2F	.	2cc	2a
=222	=222	=222	=222	=222
0r	4G	1d	1b-	1g
.	4A	.	.	.
.	4B-	.	.	.
.	4c	.	.	.
.	[1d	2r	1a	1f
.	.	[2a	.	.
=223	=223	=223	=223	=223
2r	1d]	4a]	1.ff	1.a
.	.	4g	.	.
1d	.	4f	.	.
.	.	4e	.	.
.	1r	2d	.	.
2c#	.	2e	2ee	2a
=224	=224	=224	=224	=224
1d	2r	1f	1dd	1a
.	1d	.	.	.
1A	.	1e	2ee	1a
.	2c#	.	[2a	.
=225	=225	=225	=225	=225
1.D	1d	1.a	4a]	1.ff
.	.	.	4g	.
.	.	.	4f	.
.	.	.	4e	.
.	[1A	.	2d	.
2C#	.	2a	2e	2ee
=226	=226	=226	=226	=226
1D	1A]	1a	1f	1dd
1AA	2r	1a	1e	1cc#
.	[2e	.	.	.
=227	=227	=227	=227	=227
2.A	4e]	2.a	0r	2.cc#
.	4e	.	.	.
.	2e	.	.	.
4A	.	4a	.	4cc#
2A	2e	2a	.	2cc#
2A	[2f	2a	.	2cc#
=228	=228	=228	=228	=228
1B-	2f]	1d	1r	2dd
.	4e	.	.	2g
.	4d	.	.	.
[1A	2c	1e	2.ee	1a
.	2A	.	.	.
.	.	.	4ee	.
=229	=229	=229	=229	=229
1A]	1.c	2.a	2ee	2a
.	.	.	2ee	2.cc
.	.	4a	.	.
1F	.	2a	1ff	.
.	.	.	.	4b-
.	[2d	2a	.	2a
=230	=230	=230	=230	=230
1G	2d]	1b-	2dd	2.g
.	1e	.	2b-	.
.	.	.	.	4f
1A	.	1a	1cc	1e
.	2A	.	.	.
=231	=231	=231	=231	=231
2D	1a	1.f	0dd	4d
.	.	.	.	4e
1d	.	.	.	4f
.	.	.	.	4g
.	2r	.	.	1a
2d	2d	2f	.	.
=232	=232	=232	=232	=232
2.c	2e	2.e	1g	2r
.	1g	.	.	2g
4B-	.	4d	.	.
1A	.	1c	1r	2a
.	2f	.	.	[2cc
=233	=233	=233	=233	=233
1G	2e	1g	1r	2cc]
.	2d	.	.	2b-
1r	2f	1r	2r	2a
.	2g	.	2dd	2g
=234	=234	=234	=234	=234
0r	2g	1r	2dd	2b-
.	2c	.	1gg	2cc
.	1d	2r	.	1a
.	.	2d	2ff	.
=235	=235	=235	=235	=235
2r	2c	2e	2ee	0r
2G	2B-	1g	2dd	.
2A	1A	.	1cc	.
[2c	.	2f	.	.
=236	=236	=236	=236	=236
2c]	1G	2e	0r	2.g
2B-	.	2d	.	.
.	.	.	.	4g
2A	2r	2f	.	2a
2G	2d	2g	.	[2b-
=237	=237	=237	=237	=237
2B-	2d	4g	2r	4b-]
.	.	4f	.	4a
2c	1g	4e	2g	2g
.	.	4d	.	.
2A	.	1c	2a	1cc
2A	2f	.	[2cc	.
=238	=238	=238	=238	=238
1G	2e	2.g	2cc]	2r
.	2d	.	2b-	1dd
.	.	4g	.	.
1r	2f	2a	2a	.
.	2g	[2b-	2g	2dd
=239	=239	=239	=239	=239
1r	2g	4b-]	2b-	2dd
.	.	4a	.	.
.	2c	1g	2cc	2ee-
1D	1d	.	2a	1dd
.	.	2f#	2a	.
=240	=240	=240	=240	=240
2E	2r	1g	2.g	2cc
1G	2G	.	.	1b-
.	.	.	8f	.
.	.	.	8e	.
.	2B-	2r	4d	.
.	.	.	4e	.
2F	[2c	2c	2f	2a
=241	=241	=241	=241	=241
2E	2c]	2e	2g	2cc
2D	2B-	1f	2dd	4f
.	.	.	.	4g
2F	2A	.	2cc	4a
.	.	.	.	4f
2G	2G	[2d	4b-	[2b-
.	.	.	4a	.
=242	=242	=242	=242	=242
2G	2B-	4d]	1g	4b-]
.	.	8c	.	4a
.	.	8d	.	.
2C	2c	2e-	.	1g
[1D	1A	[1d	1dd	.
.	.	.	.	4f
.	.	.	.	4e
=243	=243	=243	=243	=243
1D]	1A	1d]	2r	1f#
.	.	.	2a	.
[1G	2.G	2r	2b-	[1g
.	.	4B-	[2dd	.
.	4A	4c	.	.
=244	=244	=244	=244	=244
2G]	2B-	4d	2dd]	0g]
.	.	4B-	.	.
2C	2c	2e-	2cc	.
2r	2.G	4d	2b-	.
.	.	4c	.	.
[2E-	.	4B-	2g	.
.	4A	4A	.	.
=245	=245	=245	=245	=245
4E-]	2B-	1G	2.ee-	[0g
4D	.	.	.	.
1C	2c	.	.	.
.	.	.	4dd	.
.	2e-	2.g	2cc	.
2BB	2d	.	2dd	.
.	.	4f	.	.
=246	=246	=246	=246	=246
1C	1c	4e-	1ee-	0g]
.	.	4d	.	.
.	.	2c	.	.
1G	1B	1d	1dd	.
==	==	==	==	==
*-	*-	*-	*-	*-
!!!CDT: 1525/^1526/-1594/2/2
!!!OCY: Italia
!!!AGN: Mass (Parody)
!!!AST: renaissance, vocal
!!!ASW: Motet 1538 (Jacquet)
!!!PWK: Masses, Book 2
!!!RNB: Cadence finals: D
!!!YOR: Le Opere Complete, v. 4, p. 126
!!!YOO: Rome, Italy: Fratelli Scalera
!!!END: 1992//
!!!EED: John Miller
!!!YEC: Copyright 2000, John Miller
!!!YEN: United States of America
!!!YEM: Rights to all derivative electronic formats reserved.
!!!YEM: Refer to licensing agreement for further details.
!!!YEM: This file must be accompanied by the licensing agreement.
!!!YEM: A copy of the licensing agreement may be found at http://www.music-cog.ohio-state.edu/HumdrumDatabases/Palestrina/license.txt
!!!EMD: converted to Humdrum by Bret Aarden
